X: 2
T: My First Night in Deville
O: Irish
R: reel
M: C|
L: 1/8
Z: Contributed 20010123160208 by Pierre Commes pierre.commes@libertysurf.fr
K: G
~G3B dGBd |GBdB AFDF |~G3BdGBd |AFDF GEED |
~G3B dGBd |GBdB AFDF |(3.E.F.EBE dEBE |AFDF GE~E2 :||:
~g3a gede |gedB A2FD |EFGB dGBd |dBAF BEE2 |
~g3a gede |gedB A2FD |(3.E.F.EBE dEBE |dBAF BEE2 :||
